assets/youtrack.svg

<?xml version="1.0" encoding="utf-8"?>
<!-- Generator: Adobe Illustrator 22.1.0, SVG Export Plug-In . SVG Version: 6.00 Build 0)  -->
<svg version="1.1" id="Layer_1" xmlns="http://www.w3.org/2000/svg" xmlns:xlink="http://www.w3.org/1999/xlink" x="0px" y="0px"
	 viewBox="0 0 70 70" style="enable-background:new 0 0 70 70;" xml:space="preserve">
<style type="text/css">
	.st0{fill:#FFFFFF;}
</style>
<g>
	<path d="M13.4,13.4h43.2v43.2H13.4V13.4z"/>
	<path class="st0" d="M17.4,48.5h16.2v2.7H17.4V48.5z"/>
	<path class="st0" d="M23.8,29.9L17,19.1h4.6l4.2,7.1l4.4-7.1h4.5l-6.9,10.7V37h-4V29.9z"/>
	<path class="st0" d="M41.6,22.7h-5.5v-3.6H51v3.6h-5.5V37h-3.9V22.7z"/>
</g>
</svg>

<svg version="1.1" xmlns="http://www.w3.org/2000/svg" x="0" y="0" width="70" height="70" viewBox="0 0 70 70" xml:space="preserve"><linearGradient id="a" gradientUnits="userSpaceOnUse" x1="7.083" y1="16.294" x2="64.106" y2="42.288" gradientTransform="matrix(1 0 0 -1 0 71.047)"><stop offset="0" stop-color="#905CFB"/><stop offset=".165" stop-color="#6677F8"/><stop offset=".378" stop-color="#3596F5"/><stop offset=".54" stop-color="#17A9F3"/><stop offset=".632" stop-color="#0CB0F2"/></linearGradient><path d="M66.9,47.5c-0.2-0.2-13.1-12.6-13.1-12.6s9.8-10.4,12.4-13c0.8-0.8,1.5-1.6,2-2.6 c3.6-6.1,1.5-13.9-4.6-17.5c-4.5-2.6-10.1-2.2-14.1,0.8c-0.7,0.5-1.3,1-1.9,1.6C47.3,4.6,33.7,17,21.9,27.8l22.1,14L20.8,67.9 c-1.4,1-2.8,1.6-4.3,1.9c0.3,0,0.5,0,0.8-0.1c4.6-0.7,43.9-7.3,45.8-7.7c2.3-0.4,4.4-1.8,5.7-3.9C71,54.5,70,50,66.9,47.5z" fill="url(#a)"/><linearGradient id="b" gradientUnits="userSpaceOnUse" x1="30.31" y1="42.916" x2="1.068" y2="68.744" gradientTransform="matrix(1 0 0 -1 0 71.047)"><stop offset="0" stop-color="#905CFB"/><stop offset=".072" stop-color="#A554E6"/><stop offset=".252" stop-color="#D641B5"/><stop offset=".39" stop-color="#F43597"/><stop offset=".468" stop-color="#FF318C"/></linearGradient><path d="M45.9,30.5c-0.4-2.7-1.8-4.9-3.8-6.5C40,22.4,23.8,5.6,22,3.7C19.2,1,15.2-0.5,11.1,0.2 C4.1,1.2-0.8,7.8,0.3,14.8c0.5,3.5,2.5,6.5,5.1,8.4c2.6,2,23,16,24.3,17c2.1,1.6,4.9,2.5,7.7,2C42.9,41.2,46.8,36,45.9,30.5z" fill="url(#b)"/><linearGradient id="c" gradientUnits="userSpaceOnUse" x1="4.983" y1="12.362" x2="74.023" y2="55.864" gradientTransform="matrix(1 0 0 -1 0 71.047)"><stop offset="0" stop-color="#905CFB"/><stop offset=".165" stop-color="#6677F8"/><stop offset=".378" stop-color="#3596F5"/><stop offset=".54" stop-color="#17A9F3"/><stop offset=".632" stop-color="#0CB0F2"/></linearGradient><path d="M23,67.8c0.1,0,23.3-26.1,23.3-26.1L22.9,26.9c-8.3,7.6-16,14.5-17.8,16.2 c-1.1,1-2.2,2.3-3,3.7c-4.3,7.4-1.8,16.8,5.6,21.1C10.7,69.6,17.5,71.7,23,67.8z" fill="url(#c)"/><g><path fill="#000" d="M13.4 13.4H56.6V56.6H13.4z"/><path fill="#FFF" d="M17.4 48.5H33.599999999999994V51.2H17.4z"/><path fill="#FFF" d="M23.8 29.9L17 19.1 21.6 19.1 25.8 26.2 30.2 19.1 34.7 19.1 27.8 29.8 27.8 37 23.8 37z"/><path fill="#FFF" d="M41.6 22.7L36.1 22.7 36.1 19.1 51 19.1 51 22.7 45.5 22.7 45.5 37 41.6 37z"/></g></svg>
